src/24/actions/distribute-horizontal.svg

<svg xmlns="http://www.w3.org/2000/svg" viewBox="0 0 24 24"><path d="M4 8v8h5V8H4zm11 0v8h5V8h-5zM5 9h3v6H5V9zm11 0h3v6h-3V9zm-6 1v4h1v-1h2v1h1v-4h-1v1h-2v-1h-1z" fill="currentColor" color="#5d656b"/></svg>

<svg xmlns="http://www.w3.org/2000/svg" viewBox="0 0 24 24">
  <defs id="defs3051">
    <style type="text/css" id="current-color-scheme">
      .ColorScheme-Text {
        color:#5d656b;
      }
      </style>
  </defs>
 <path style="fill:currentColor;fill-opacity:1;stroke:none" 
     d="M 4 8 L 4 16 L 9 16 L 9 8 L 4 8 z M 15 8 L 15 16 L 20 16 L 20 8 L 15 8 z M 5 9 L 8 9 L 8 15 L 5 15 L 5 9 z M 16 9 L 19 9 L 19 15 L 16 15 L 16 9 z M 10 10 L 10 14 L 11 14 L 11 13 L 13 13 L 13 14 L 14 14 L 14 10 L 13 10 L 13 11 L 11 11 L 11 10 L 10 10 z "
     class="ColorScheme-Text"
     />
</svg>
